!!! OTL: Berkowitz316
!!! Chapter: 1
!!! Section: III
!!! Page: 76
!!! Mode: 
!!! Encoder: DJB
**kern
*staff1
*I"Piano
=1-
*clefG2
*k[f#c#g#d#]
*c#:
*M3/4
4b\
4.ff#\
8dd#\
=2
4ee\
4dd#\
4cc#\
=3
4g#/
4.ff#\
8dd#\
=4
2gg#\
4gg#\
=5
4aa\
4.b\
8bb\
=6
4gg#\
4ff#\
4ee\
=7
8dd#\L
8ee\J
8ff#\L
8ee\J
8dd#\L
8cc#\J
=8
2.gg#\
=9
4aa\
4.b#\
8aa\
=10
4gg#\
4ee\
4cc#\
=11
!!linebreak:original
4.ff#\
8ee\
8dd#\L
8cc#\J
=12
2b#\
8cc#\L
8dd#\J
=13
4ee\
4f#/
4dd#\
=14
4b#\
4cc#\
4r
=15
4g#/
8ff#\L
8ee\J
4dd#\
=16
2.cc#\
==
*-
